X: 266
T:Tibbie Fowler of the Glen
G:country dance
S:Duke of Perth MS (NLS MS 21715)
M:C|
L:1/8
Q:1/2=96
K:DDor
E|DGGA ^F>GAc|BGGA ^F>EDE|G/G/G GA ^FGAc|dGGA ^F>ED:|
a|fddf  c>dcA|fdde  f>gag|fddf      AFcA|dGGA ^F>ED:|

And in this one (a Shetland tune said to be of Greenlandic Inuit origin)
the G is variable.  I'm not confident that it has a single tonal centre -
E is my best guess.

